X: 54
T:Lost Indian
M:4/4
L:1/8
Q:90
R:Reel
K:D
A,B,|:"D"D2DF E-DB,C|D-EDB, A,-G,A,B,|D2DE F-GAd|"Bm"B2Bd B2BA|!
"D"d-BAdB-AdB|A-dBA F3/2D/2|F-EDF "A"E-DCE|[1"D"D2DE D2 A,B,:|[2"D"D2DE
D2 ag||!
f-efg a2fg|a-baf e-d(3BdB|A-dfg agfa|
"Bm"b4-b2f2|"D"f-efg a2fg|!
a-baf e-dBA|f-afe "A"c-BAF|[1"D"D2DF D2 ag|[2"
D"D2DF D4|]
